X: 25701
T: Mary
R: waltz
M: 3/4
K: Gmajor
dc|"G"B3AG2|G4F2|"C" G2F2E2|"G"D2B,2C2|D2E2F2|"Emin"G2d3G|"A7"B6|"D7"A4dc|
"G"B3AG2|G4F2|"C"G2F2E2|"D"D2E2F2|"Emin"G2d2G2|"A"B4"D"A2|"G"G6-|G4:|
B2|"D"A3Bc2|"D7"c4A2|"G"B3cd2|d4G2|"C"e2d2c2|"G"B2A2G2|"A7"B6|"D7"A4dc|
"G"B3AG2|G4F2|"C" G2F2E2|"D"D2E2F2|"Emin"G2d2G2|"A"B4"D"A2|"G"G6-|G4:|

